.local/share/icons/Gruvbox-Plus-Dark/panel/16/qomp-play-panel.svg

<svg width="16" height="16" version="1.1" xmlns="http://www.w3.org/2000/svg">
  <defs>
    <style id="current-color-scheme" type="text/css">.ColorScheme-Text { color:#ebdbb2; } .ColorScheme-Highlight { color:#458588; } .ColorScheme-NeutralText { color:#fe8019; } .ColorScheme-PositiveText { color:#689d6a; } .ColorScheme-NegativeText { color:#fb4934; }</style>
  </defs>
  <path class="ColorScheme-Text" d="m8 1a7 7 0 0 0-7 7 7 7 0 0 0 7 7 7 7 0 0 0 3-0.6855v-0.8086-1.99c5.19e-4 -0.7813 0.624-1.539 1.492-1.516 0.2622 0.006996 0.5168 0.08873 0.7305 0.2266h0.001953l1.115 0.7227a7 7 0 0 0 0.6602-2.949 7 7 0 0 0-7-7zm2.5 2.998h0.5v5.5c0 0.8284-0.6716 1.5-1.5 1.5s-1.5-0.6716-1.5-1.5c0-0.8284 0.6716-1.5 1.5-1.5 0.18 0 0.34 0.0357 0.5 0.0957v-2.094h-3v3.5c0 0.8284-0.6716 1.5-1.5 1.5s-1.5-0.6716-1.5-1.5 0.6716-1.5 1.5-1.5c0.18 0 0.34 0.0357 0.5 0.0957v-4.094l4.5-0.003906zm1.973 7.002a0.461 0.5148 0 0 0-0.4727 0.5137v1.986 1.986a0.461 0.5148 0 0 0 0.6914 0.4453l1.539-0.9922 1.539-0.9941a0.461 0.5148 0 0 0 0-0.8906l-1.539-0.9941-1.539-0.9922a0.461 0.5148 0 0 0-0.2188-0.06836z" fill="currentColor"/>
</svg>

<svg xmlns="http://www.w3.org/2000/svg" width="16" height="16" version="1.1">
 <defs>
  <style id="current-color-scheme" type="text/css">
   .ColorScheme-Text { color:#ebdbb2; } .ColorScheme-Highlight { color:#458588; }
  </style>
 </defs>
 <path style="fill:currentColor" class="ColorScheme-Highlight" d="M 8,1 A 7,7 0 0 0 1,8 7,7 0 0 0 8,15 7,7 0 0 0 15,8 7,7 0 0 0 8,1 Z m 2.5,2.9980469 0.5,0 0,5.5000001 c 0,0.8284 -0.6716,1.5 -1.5,1.5 -0.8284,0 -1.5,-0.6716 -1.5,-1.5 0,-0.8284 0.6716,-1.5 1.5,-1.5 0.18,0 0.34,0.0357 0.5,0.0957 L 10,6 7,6 7,9.5 C 7,10.3284 6.3284,11 5.5,11 4.6716,11 4,10.3284 4,9.5 4,8.6716 4.6716,8 5.5,8 5.68,8 5.84,8.0357 6,8.0957 l 0,-4.0937499 4.5,-0.00391 z"/>
</svg>
